X:1
T:James Gibb editions
T:La terre les eaux - Costeley
T:#
%%score [ 1 2 3 4 ]
L:1/8
Q:1/4=120
M:none
K:F
V:1 treble nm="Soprano" snm="S"
V:2 treble nm="Alto" snm="A"
V:3 treble-8 nm="Tenor" snm="T"
V:4 bass nm="Bass" snm="B"
V:1
"^Guillaume Costeley\n(1531-1606)""^La terre les eaux va buvant" z16 | A4 A2 A2 d4 d4 | c4 B4 A8 | %3
w: |La ter- re les eaux|va bu- vant,|
 z2 B2 B2 B2 A2 A2 G2 G2 | ^F4 A4 B4 A4 | F4 d4 d4 d4 | (f6 e2 d6 c2 | B4) B4 A4 G4- | G4 ^F4 G8 | %9
w: la ter- re les eaux va bu-|vant: L'ar- bre la|boit, l'ar- bre la|boit * * *|* par sa ra\-|* ci- ne,|
 z8 A4 A2 A2 | d6 d2 c4 B4 | A8 z2 B2 B2 B2 | A2 A2 G2 G2 ^F4 A4 | B4 A4 F4 d4 | d4 d4 (f6 e2 | %15
w: La mer e-|spar- se boit le|vent, la mer e-|spar- se boit le vent, Et|le so- leil, et|le so- leil *|
 d6 c2 B4) B4 | A4 G8 ^F4 | G8 z8 | z8 z2 d2 d2 d2 | B2 G2 Bc (d4 ^c2) d4 | %20
w: * * * boit|la ma- ri-|ne.|Le so- leil|est bu de la lu\- * ne;|
 z2 d2 d2 d2 B2 B2 c2 c2 | F4 z2 F2 F2 F2 G2 G2 | B2 B4 A2 B4 z4 | z8 z2 f2 f2 f2 | %24
w: Tout boit, soit en haut, ou en|bas. Sui- vant cet- te rè-|gle com- mu- ne,|Pour- quoi donc|
 d2 d2 B2 c2 d2 A2 B2 B2 | A2 G2 G2 ^F2 G4 G4 | G2 G2 ^F2 F2 G2 B4 A2 | B4 z4 z8 | %28
w: ne bu- rons nous pas, pour- quoi donc|ne bu- rons nous pas? Sui-|vant cet- te rè- gle com- mu-|ne,|
 z2 f2 f2 f2 d2 d2 B2 c2 | %29
w: Pour- quoi donc ne bu- rons nous|
[Q:1/4=118] d2[Q:1/4=116] A2[Q:1/4=114] B2[Q:1/4=111] B2[Q:1/4=109] A2[Q:1/4=107] G2[Q:1/4=105] G2[Q:1/4=103] ^F2 | %30
w: pas, pour- quoi donc ne bu- rons nous|
[Q:1/4=102] G16 |] %31
w: pas?|
V:2
 D4 D2 D2 G4 G4 | F4 E4 (D2 E2 F2 D2 | E2 F2 G8 ^F4) | G2 G2 D2 D2 F2 F2 C2 C2 | D4 ^F4 G4 E4 | %5
w: La ter- re les eaux|va bu- vant, * * *||* la ter- re les eaux va bu-|vant: L'ar- bre la|
 D4 F4 G4 G4 | A4 A4 (B6 AG | F12) D4 | D8 B,2 D2 D2 D2 | G6 G2 F4 E4 | (D2 E2 F2 D2 E2 F2 G4- | %11
w: boit, l'ar- bre la|boit par sa * *|* ra-|ci- ne, La mer e-|spar- se boit le|vent, * * * * * *|
 G4 ^F4 G2) G2 D2 D2 | F2 F2 C2 C2 D4 ^F4 | G4 E4 D4 F4 | G4 G4 A4 A4 | (B6 AG F8- | F4) D4 D8 | %17
w: * * * la mer e-|spar- se boit le vent, Et|le so- leil, et|le so- leil boit|la * * *|* ma- ri-|
 B,2 G,2 B,4 A,4 A,4 | G,2 G2 G2 G2 ^F2 D2 F2 F2 | G4 D2 G2 E4 D4 | z2 G2 F2 F2 _E2 E2 E2 E2 | %21
w: ne. Le so- leil est|bu, le so- leil est bu de la|lu- ne, la lu- ne;|Tout boit, soit en haut, ou en|
 D4 z2 D2 D2 D2 _E2 E2 | D2 _E2 F4 F2 F2 F2 F2 | D2 D2 B,2 C2 D2 D2 D2 C2 | DE ^F2 G4 F2 F2 G2 D2 | %25
w: bas. Sui- vant cet- te rè-|gle com- mu- ne, Pour- quoi donc|ne bu- rons nous pas, pour- quoi donc|ne bu- rons nous pas, pour- quoi donc|
 _E2 C2 D2 D2 =B,4 D4 | D2 D2 D2 D2 D2 _E2 F4 | F2 F2 F2 F2 D2 D2 B,2 C2 | D2 D2 D2 C2 DE ^F2 G4 | %29
w: ne bu- rons nous pas? Sui-|vant cet- te rè- gle com- mu-|ne, Pour- quoi donc ne bu- rons nous|pas, pour- quoi donc ne bu- rons nous|
 ^F2 F2 G2 D2 _E2 C2 D2 D2 | =B,16 |] %31
w: pas, pour- quoi donc ne bu- rons nous|pas?|
V:3
 z8 G4 G2 G2 | d4 c4 B4 B4 | A4 z2 G2 d6 d2 | d4 B4 c4 G4 | A4 d4 d4 ^c4 | d8 z2 B2 B2 B2 | %6
w: La ter- re|les eaux va bu-|vant, la ter- re|les eaux va bu-|vant: L'ar- bre la|boit, l'ar- bre la|
 c4 f4 (f2 e2 d4- | d4) (d4 c2 B2) (B2 AG | A8) G8 | G4 G2 G2 d4 c4 | B4 B4 A4 z2 G2 | %11
w: boit par sa * *|* ra\- * * ci\- * *|* ne,|La mer e- spar- se|boit le vent, la|
 d6 d2 d4 B4 | c4 G4 A4 d4 | d4 ^c4 d8 | z2 B2 B2 B2 c4 f4 | (f2 e2 d8) (d4 | c2 B2) (B2 AG A8) | %17
w: mer e- spar- se|boit le vent, Et|le so- leil,|et le so- leil boit|la * * ma\-|* * ri\- * * *|
 G6 d2 d2 d2 c2 A2 | Bc (d4 ^c2) d8 | G6 G2 A4 B4 | z2 B2 A2 A2 G3 F G2 A2 | B4 z2 B2 B2 B2 B2 B2 | %22
w: ne. Le so- leil est bu|de la lu\- * ne,|de la lu- ne;|Tout boit, soit en haut, ou en|bas. Sui- vant cet- te re-|
 B2 B2 c4 d2 d2 c2 c2 | B2 A2 G2 G2 A2 A2 B2 F2 | B2 A2 G2 G2 A2 d2 d2 B2 | c2 G2 A2 A2 G4 B4 | %26
w: gle com- mu- ne, Pour- quoi donc|ne bui- rons nous pas, pour- quoi donc|ne bu- rons nous pas, pour- quoi donc|ne bu- rons nous pas? Sui-|
 B2 B2 A2 A2 B2 B2 c4 | d2 d2 c2 c2 B2 A2 G2 G2 | A2 A2 B2 F2 B2 A2 G2 G2 | %29
w: vant cet- te rè- gle com- mu-|ne, Pour- quoi donc ne bu- rons nous|pas, pour- quoi donc ne bu- rons nous|
 A2 d2 d2 B2 c2 G2 A2 A2 | G16 |] %31
w: pas, pour- quoi donc ne bu- rons nous|pas?|
V:4
 z16 | z16 | z8 D,4 D,2 D,2 | G,6 G,2 F,4 _E,4 | D,4 D,4 G,4 A,4 | (B,6 A,2 G,2 F,2 G,4 | %6
w: ||La ter- re|les eaux va bu-|vant: L'ar- bre la|boit * * * *|
 F,2 E,2 D,2 C,2 B,,4) B,,4 | (B,,2 C,2 D,2 E,2 F,4) G,4 | D,8 G,,8- | G,,8 z8 | z12 z4 | %11
w: * * * * * par|sa * * * * ra-|ci- ne,|||
 D,4 D,2 D,2 G,6 G,2 | F,4 _E,4 D,4 D,4 | G,4 A,4 (B,6 A,2 | G,2 F,2 G,4 F,2 E,2 D,2 C,2- | %15
w: La mer e- spar- se|boit le vent, Et|le so- leil *||
 B,,4) B,,4 (B,,2 C,2 D,2 E,2 | F,4) G,4 D,8 | G,2 G,2 G,2 G,2 F,2 D,2 F,2 F,2 | %18
w: * boit la * * *|* ma- ri-|ne. Le so- leil est bu de la|
 (G,F,E,D, E,4) D,8 | z12 z2 G,2 | G,2 G,2 D,2 D,2 _E,4 C,4 | B,,4 z2 B,,2 B,,2 B,,2 _E,2 E,2 | %22
w: lu\- * * * * ne;|Tout|boit, soit en haut, ou en|bas. Sm- vant cet- te rè-|
 G,2 G,2 F,4 B,,2 B,2 A,2 F,2 | G,2 D,2 _E,2 E,2 D,2 z2 z4 | G,2 D,2 _E,2 E,2 D,2 D,2 G,2 G,2 | %25
w: gle com- mu- ne, Pour- quoi donc|ne bu- rons nous pas,|ne bu- rons nous pas, pour- quoi donc|
 C,2 _E,2 D,2 D,2 G,4 G,4 | G,2 G,2 D,2 D,2 G,2 G,2 F,4 | B,,2 B,2 A,2 F,2 G,2 D,2 _E,2 E,2 | %28
w: ne bu- rons nous pas? Sui-|vant cet- te rè- gle com- mu-|ne, Pour- quoi donc ne bu- rons nous|
 D,2 z2 z4 G,2 D,2 _E,2 E,2 | D,2 D,2 G,2 G,2 C,2 _E,2 D,2 D,2 | G,16 |] %31
w: pas, ne bu- rons nous|pas, pour- quoi donc ne bu- rons nous|pas?|

